icons/struts.svg

<?xml version="1.0" encoding="UTF-8" standalone="no"?>
<svg width="256px" height="290px" viewBox="0 0 256 290" version="1.1" xmlns="http://www.w3.org/2000/svg" xmlns:xlink="http://www.w3.org/1999/xlink" preserveAspectRatio="xMidYMid">
	<g>
		<path d="M241.026415,73.9018868 L130.415094,9.66037736 L9.66037736,77.2830189 L9.66037736,212.528302 L130.415094,280.150943 L246.339623,212.528302 L246.339623,77.2830189 L246.339623,71.4867925 L241.026415,73.9018868 Z" fill="#202A5A"></path>
		<path d="M9.66037736,77.2830189 L130.415094,144.90566 L246.339623,77.2830189 L130.415094,9.66037736 L9.66037736,77.2830189 Z" fill="#2C448A"></path>
		<path d="M246.339623,71.4867925 L207.698113,91.7735849 L207.215094,100.467925 L130.415094,144.90566 L130.415094,280.150943 L246.339623,212.528302 L246.339623,71.4867925 Z" fill="#283A79"></path>
		<path d="M9.66037736,77.2830189 L9.66037736,212.528302 L130.415094,280.150943 L130.415094,144.90566 L9.66037736,77.2830189 Z" fill="#202A5A"></path>
		<path d="M0,212.528302 L0,169.056604 L130.415094,246.339623 L130.415094,289.811321 L0,212.528302 Z" fill="#3558A7"></path>
		<path d="M0,77.2830189 L0,101.433962 L130.415094,178.716981 L130.415094,154.566038 L0,77.2830189 Z" fill="#3558A7"></path>
		<path d="M256,212.528302 L256,188.377358 L150.218868,142.490566 L130.415094,154.566038 L130.415094,178.233962 L194.656604,206.732075 L130.415094,246.339623 L130.415094,289.811321 L256,212.528302 Z" fill="#416FB5"></path>
		<path d="M194.656604,206.732075 L186.928302,203.833962 L130.415094,236.679245 L9.66037736,169.056604 L9.66037736,163.260377 L0,169.056604 L130.415094,246.339623 L194.656604,206.732075 Z" fill="#477FC1"></path>
		<path d="M56.9962264,86.9433962 L130.415094,43.4716981 L207.698113,91.7735849 L246.339623,71.4867925 L130.415094,0 L0,77.2830189 L130.415094,154.566038 L150.218868,142.490566 L56.9962264,86.9433962 Z" fill="#477FC1"></path>
		<path d="M207.215094,100.467925 L207.698113,91.7735849 L130.415094,43.4716981 L56.9962264,86.9433962 L65.2075472,91.7735849 L130.415094,53.1320755 L207.215094,100.467925 Z" fill="#202A5A"></path>
	</g>
</svg>

<svg xmlns="http://www.w3.org/2000/svg" viewBox="0 0 256 289.811">
  <path fill="#202a5a" d="M241.026 73.902 130.416 9.66 9.66 77.283v135.245l120.755 67.623 115.925-67.623V71.487z"/>
  <path fill="#2c448a" d="m9.66 77.283 120.755 67.623L246.34 77.283 130.415 9.66z"/>
  <path fill="#283a79" d="m246.34 71.487-38.642 20.287-.483 8.694-76.8 44.438V280.15l115.925-67.623z"/>
  <path fill="#202a5a" d="M9.66 77.283v135.245l120.755 67.623V144.906z"/>
  <path fill="#3558a7" d="M0 212.528v-43.471l130.415 77.283v43.471zM0 77.283v24.151l130.415 77.283v-24.151z"/>
  <path fill="#416fb5" d="M256 212.528v-24.15L150.219 142.49l-19.804 12.075v23.668l64.242 28.498-64.242 39.608v43.471z"/>
  <path fill="#477fc1" d="m194.657 206.732-7.729-2.898-56.513 32.845L9.66 169.057v-5.797L0 169.057l130.415 77.283zM56.996 86.943l73.42-43.471 77.282 48.302 38.642-20.287L130.415 0 0 77.283l130.415 77.283 19.804-12.075z"/>
  <path fill="#202a5a" d="m207.215 100.468.483-8.694-77.283-48.302-73.419 43.471 8.212 4.83 65.207-38.64z"/>
</svg>
